app/dist/common/images/cns-pharmaceuticals-inc.svg

<svg height="18" viewBox="0 0 18 18" width="18" xmlns="http://www.w3.org/2000/svg"><path d="m0 0h18v18h-18z" fill="#f0f3fa"/><path d="m4.73 7h1.27v.75h-1.2c-.3 0-1.06.15-1.06 1.25 0 1.13.71 1.25 1.06 1.25h1.2v.75h-1.27c-.25-.02-1.73.1-1.73-2 0-1.82 1.13-2 1.73-2zm2.27 0v4h.72v-3.08l2.14 3.08h.86v-4h-.72v2.85l-1.92-2.85zm5.71 0h2.04v.75h-1.89c-.2 0-.62-.02-.62.38s.37.38.52.37h1.14c.2.02 1.1.05 1.1 1.25 0 1.04-.75 1.25-1.2 1.25h-2.06v-.75h2.06c.1 0 .45-.1.45-.5 0-.29-.22-.5-.45-.5h-1.1c-.12 0-1.22.1-1.22-1.12 0-1.16.8-1.13 1.22-1.13z" fill="#0133cc"/></svg>

<!-- by TradingView --><svg width="18" height="18" viewBox="0 0 18 18" xmlns="http://www.w3.org/2000/svg"><path fill="#F0F3FA" d="M0 0h18v18H0z"/><path d="M4.73 7H6v.75H4.8c-.3 0-1.06.15-1.06 1.25 0 1.13.71 1.25 1.06 1.25H6V11H4.73C4.48 10.98 3 11.1 3 9c0-1.82 1.13-2 1.73-2ZM7 7v4h.72V7.92L9.86 11h.86V7H10v2.85L8.08 7H7ZM12.71 7h2.04v.75h-1.89c-.2 0-.62-.02-.62.38s.37.38.52.37h1.14c.2.02 1.1.05 1.1 1.25 0 1.04-.75 1.25-1.2 1.25h-2.06v-.75h2.06c.1 0 .45-.1.45-.5 0-.29-.22-.5-.45-.5H12.7c-.12 0-1.22.1-1.22-1.12 0-1.16.8-1.13 1.22-1.13Z" fill="#0133CC"/></svg>
